X:1
T:The Easter Dawn
T:The Easter Dawn
T:Henry Lake Gilmour
T:Letitia Pauline Gilmour, 1904
T:Public Domain Courtesy of the Cyber Hymnal™
T:Public Domain Courtesy of the Cyber Hymnal™
C:Henry Lake Gilmour
Z:Public Domain
Z:Courtesy of the Cyber Hymnal™
%%score ( 1 2 ) ( 3 4 )
L:1/8
Q:1/4=115
M:6/4
K:Ab
V:1 treble 
V:2 treble 
V:3 bass 
V:4 bass 
V:1
 [CE]2 | [CE]2 [=B,=D]2 [CE]2 [DF]2 [CE]2 ([CE][CE]) | [CA]2 [DG]2 [DF]2 [CE]4 (EE) | %3
w: 1.~All|na- ture is sleep- ing, the *|world’s wrapped in death; E’en~the *|
w: 2.~How|sad- ly they ga- ther in *|dark- ness and gloom, For *|
w: 3.~But|hark! now while sit- ting in *|si- lence and fears, The *|
w: 4.~He’s|ris- en! He’s ris- en! Hear~the *|wo- men’s glad cry; He’s *|
 [Ac]2 [EB]2 [EA]2 [FA]2 [CG]2 [CA]2 | [=DB]2 [DA]2 [Dc]2 [_DB]4 ([DE][DE]) | %5
w: winds in their sigh- ing have|hushed their sad breath; For~the *|
w: He whom they loved is now|locked in the tomb; They *|
w: sound of glad voic- es breaks|forth on their ears; ’Tis~the *|
w: ris- en! He’s ris- en! No|more will He die; Go *|
 [CE]2 [=B,=D]2 [CE]2 [DF]2 [CE]2 [CE]2 | [CA]2 [DG]2 [E_G]2 [DF]4 ([=B,F][B,F]) | %7
w: God who had made them lies|still in death’s sleep, And~His *|
w: wait in that cham- ber, they|know not for what, How *|
w: wo- men whose love led them|forth in the night, And *|
w: forth, glad e- van- gel, go|forth in your might; The *|
 [CE]2 [EA]2 [Ec]2 [=DB]2 [DF]2 ([DF][DF]) | [EG]2 [EA]2 [EB]2 [EA]4 ||"^Refrain" c2 | %10
w: heart- brok- en foll- owers can~but *|trem- ble and weep.||
w: bur- dened their hearts are, how *|hard seems their lot.|O|
w: Je- sus now bids them to *|haste with the light.||
w: Sav- ior has called you, O *|haste with the light.||
 c c2 z [Ac]2 [Ge] [Ge]2 z [FA]2 | [FB]2 [FA]2 [DF]2 [FA]4 [DF]2 | %12
w: ||
w: sing it! O shout it! this|won- drous re- frain, Our|
w: ||
w: ||
 [CE]2 [EA]2 [Ac]2 [Ac]3 [EB] [EA]2 | [Ee]2 [Ed]2 [Ec]2 [EB]4 [Ec][Ec] | %14
w: ||
w: Lord is tri- umph- ant, the|Lamb that was slain; He the|
w: ||
w: ||
 [Ac]2 [A=B]2 [Ac]2 [EA]4 [Ad][Ad] | [Ad]2 [Ac]2 [Ad]2 [GB]4 [Ge]2 | %16
w: ||
w: vic- t’ry has won o- ver|death and the grave, Hence-|
w: ||
w: ||
 [Ae]3 [Ae] [Ae]2 [Ae] [Ac]3 [Ad]2 | [Ac] [EA]3 [EB]2 [EA]6 |] %18
w: ||
w: forth and for- ev- er the|might- y to save.|
w: ||
w: ||
V:2
 x2 | x12 | x10 EE | x12 | x12 | x12 | x12 | x12 | x10 || c2 | c c2 x9 | x12 | x12 | x12 | x12 | %15
 x12 | x12 | x12 |] %18
V:3
 [A,,A,]2 | [A,,A,]2 [A,,A,]2 [A,,A,]2 [A,,A,]2 [A,,A,]2 ([A,,A,][A,,A,]) | %2
 [A,,E,]2 [A,,F,]2 [A,,G,]2 [A,,A,]4 ([A,C][A,C]) | [A,E]2 [A,D]2 [A,C]2 [F,C]2 [F,B,]2 [F,A,]2 | %4
 [B,,A,]2 [B,,A,]2 [B,,A,]2 [E,G,]4 ([E,G,][E,G,]) | %5
 [A,,A,]2 [A,,A,]2 [A,,A,]2 [A,,A,]2 [A,,A,]2 [A,,A,]2 | %6
 [A,,E,]2 [B,,E,]2 [C,A,]2 [D,A,]4 ([=D,A,][D,A,]) | %7
 [F,A,]2 [F,C]2 [E,A,]2 [F,A,]2 [F,A,]2 ([B,,B,][B,,B,]) | [E,B,]2 [E,C]2 [E,D]2 [A,,C]4 || C2 | %10
 C C2 z A,2 [E,B,] [E,B,]2 z [F,A,]2 | [D,D]2 [D,D]2 [D,A,]2 [D,D]4 [D,A,]2 | %12
 [A,,A,]2 [A,,C]2 [A,,E]2 [A,E]3 [A,D] [A,C]2 | [G,B,]2 [G,B,]2 A,2 [E,G,]4 A,[A,E] | %14
 [A,E]2 [A,=D]2 [A,E]2 [A,C]4 [=D,F][D,F] | [D,F]2 [D,F]2 [D,F]2 [E,E]4 [E,D]2 | %16
 [A,C]3 [A,C] [A,C]2 [A,C] [A,E]3 [D,F]2 | [E,E] [E,C]3 [E,D]2 [A,,C]6 |] %18
V:4
 x2 | x12 | x12 | x12 | x12 | x12 | x12 | x12 | x10 || C2 | C C2 A,2 x7 | x12 | x12 | %13
 x4 A,2 x2 A, x3 | x12 | x12 | x12 | x12 |] %18

